application/static/images/icons/xtrapolis.svg

<?xml version="1.0" encoding="UTF-8" standalone="no"?>
<svg
   xmlns:dc="http://purl.org/dc/elements/1.1/"
   xmlns:cc="http://creativecommons.org/ns#"
   xmlns:rdf="http://www.w3.org/1999/02/22-rdf-syntax-ns#"
   xmlns:svg="http://www.w3.org/2000/svg"
   xmlns="http://www.w3.org/2000/svg"
   version="1.1"
   id="svg1286"
   width="1802.2076"
   height="1665.955"
   viewBox="0 0 1802.2076 1665.955">
  <metadata
     id="metadata1292">
    <rdf:RDF>
      <cc:Work
         rdf:about="">
        <dc:format>image/svg+xml</dc:format>
        <dc:type
           rdf:resource="http://purl.org/dc/dcmitype/StillImage" />
        <dc:title></dc:title>
      </cc:Work>
    </rdf:RDF>
  </metadata>
  <defs
     id="defs1290" />
  <path
     style="fill:#1f1f1f;fill-opacity:1;stroke:none;stroke-width:1px;stroke-linecap:butt;stroke-linejoin:miter;stroke-opacity:1"
     d="m 266.38962,1665.8138 c 46.46503,0.8957 1243.69848,-2.8133 1272.86308,-1.5323 27.5749,1.2111 -6.9002,-140.6334 -6.9002,-140.6334 l -1305.86995,4.3149 c 0,0 -7.92106,136.9289 39.90707,137.8508 z"
     id="path1902" />
  <path
     style="fill:#e4ba09;fill-opacity:1;stroke:none;stroke-width:1px;stroke-linecap:butt;stroke-linejoin:miter;stroke-opacity:1"
     d="m 1512.6722,15.306602 c 156.1673,11.4246 210.0695,45.4925 241.4089,87.280198 29.584,39.447 30.876,57.992 32.5232,151.6634 1.8828,107.0718 6.6616,438.36865 12.1437,815.2835 5.1575,354.5929 9.0439,450.0484 -23.0601,528.5971 -28.2244,69.0565 -26.0953,68.9025 -66.0993,67.338 -39.5367,-1.5461 -149.0827,1.0096 -175.871,-1.479 -26.7883,-2.4886 -27.9531,-1.3308 -27.9531,-28.1191 0,-26.7883 18.6354,-89.5719 -114.1414,-91.5257 -132.7768,-1.9537 -956.7129,0.5215 -1004.4802,0.2376 -47.76728,-0.2839 -98.82883,9.2956 -98.82883,63.6514 0,54.3559 0.82358,57.6551 -15.6479,57.5572 -16.47147,-0.098 -130.29155,-1.2667 -160.97366,-0.8194 -28.172656,0.4107 -38.56845,2.5906 -49.861166,-16.0466 C 29.662786,1595.8351 5.7483176,1532.1566 0.88689357,1414.6333 -2.7670098,1326.3014 10.856202,766.62276 11.773871,649.60385 12.79826,518.97614 17.797112,315.84039 22.369765,201.89888 26.228224,105.75365 87.362124,43.073502 205.95671,24.012502 324.55131,4.9516018 657.275,-1.3068982 914.23,0.22010178 c 256.9549,1.52700002 456.7876,-0.5797 598.4422,15.08650022 z"
     id="path1858" />
  <path
     style="fill:#764d02;fill-opacity:1;stroke:none;stroke-width:1px;stroke-linecap:butt;stroke-linejoin:miter;stroke-opacity:1"
     d="m 1659.5641,336.5496 c 0,-84.0045 -1.6472,-131.7816 -74.1217,-145.3895 -72.4744,-13.6078 -437.3175,-17.4231 -617.6801,-20.1421 -180.3627,-2.719 -575.678,8.1089 -689.33111,16.4928 -113.65315,8.3839 -114.47673,54.4991 -119.41817,133.5328 -4.94144,79.0338 30.47222,-66.5284 30.47222,-66.5284 l 184.48046,-26.9051 1220.5361,3.1355 32.9429,40.5509 z"
     id="path1862" />
  <path
     style="fill:#2a2a2a;fill-opacity:1;stroke:none;stroke-width:1px;stroke-linecap:butt;stroke-linejoin:miter;stroke-opacity:1"
     d="m 1525.3216,209.7451 c 108.7231,3.5399 130.1246,18.892 135.066,139.163 4.9415,120.2711 8.2357,533.72466 0,637.44592 -8.2358,103.72138 -19.5168,155.31828 -80.0817,158.45248 -60.5648,3.1342 -91.9789,1.3823 -110.065,1.6754 -359.3752,5.8226 -592.4248,11.4246 -862.3803,4.0971 -35.4153,-0.9613 -282.48572,-4.1496 -357.43091,-4.595 -74.9452,-0.4453 -100.47598,-36.8343 -102.12313,-133.2022 -1.64714,-96.36787 3.2943,-359.05851 4.94145,-448.81822 1.64714,-89.75968 2.47072,-213.29088 7.41216,-265.14668 4.94144,-51.8557 31.29579,-87.9364 164.71471,-87.967 133.41892,-0.031 1092.06842,-4.6172 1199.94672,-1.1048 z"
     id="path1860" />
  <path
     style="fill:#dca70a;fill-opacity:1;stroke:none;stroke-width:1px;stroke-linecap:butt;stroke-linejoin:miter;stroke-opacity:1"
     d="M 1800.1738 1459.877 C 1507.9474 1466.1768 1197.0632 1475.431 897.75977 1474.3125 C 708.98423 1473.1907 251.67957 1468.8133 4.9609375 1469.9336 C 14.105077 1553.4072 35.116429 1604.8351 61.832031 1648.9258 C 73.124747 1667.563 83.520703 1665.3834 111.69336 1664.9727 C 142.37547 1664.5254 256.19455 1665.693 272.66602 1665.791 C 273.62453 1665.7967 274.51247 1665.7865 275.35742 1665.7598 C 275.49085 1665.7555 275.62711 1665.7534 275.75781 1665.748 C 276.04217 1665.7365 276.31819 1665.7203 276.58984 1665.7031 C 276.82917 1665.688 277.06134 1665.6685 277.29102 1665.6484 C 277.50592 1665.6297 277.72306 1665.6134 277.92969 1665.5898 C 278.22286 1665.5564 278.50045 1665.5129 278.77734 1665.4688 C 279.03122 1665.4284 279.27896 1665.3824 279.51953 1665.332 C 279.79497 1665.2744 280.06768 1665.2146 280.32617 1665.1426 C 280.47624 1665.1008 280.61721 1665.0509 280.76172 1665.0039 C 280.98153 1664.9324 281.19706 1664.8559 281.4043 1664.7715 C 281.54852 1664.7128 281.68984 1664.6493 281.82812 1664.584 C 282.02952 1664.4888 282.22299 1664.3855 282.41211 1664.2754 C 282.52886 1664.2075 282.64757 1664.1422 282.75977 1664.0684 C 283.0248 1663.8937 283.27908 1663.7025 283.51953 1663.4922 C 283.5434 1663.4713 283.57012 1663.4548 283.59375 1663.4336 C 285.72011 1661.5224 286.89305 1658.1007 287.53906 1652.0781 C 287.60896 1651.4251 287.66866 1650.7236 287.72656 1650.0078 C 287.83496 1648.6735 287.92941 1647.2564 288.00195 1645.6895 C 288.08001 1644.0035 288.14058 1642.1746 288.18555 1640.1973 C 288.18572 1640.1894 288.18537 1640.1797 288.18555 1640.1719 C 288.23038 1638.193 288.26074 1636.0609 288.28125 1633.7676 C 288.28133 1633.7588 288.28117 1633.7471 288.28125 1633.7383 C 288.28146 1633.7152 288.28105 1633.6871 288.28125 1633.6641 C 288.30805 1630.6045 288.31425 1627.1528 288.31641 1623.4883 C 288.31933 1618.8498 288.31451 1613.9909 288.31445 1608.2793 C 288.31445 1608.275 288.31445 1608.2718 288.31445 1608.2676 C 288.31445 1608.2551 288.31445 1608.2469 288.31445 1608.2344 C 288.31445 1607.3976 288.32756 1606.5715 288.35156 1605.7559 C 289.88682 1553.5861 340.11065 1544.3025 387.14258 1544.582 C 434.90988 1544.8659 1258.8462 1542.392 1391.623 1544.3457 C 1495.4404 1545.8734 1506.6893 1584.5878 1506.6582 1614.209 C 1506.657 1615.3685 1506.6403 1616.5157 1506.6094 1617.6445 C 1506.6088 1617.6677 1506.6081 1617.6917 1506.6074 1617.7148 C 1506.4498 1623.4689 1505.9693 1628.7887 1505.8125 1633.3066 C 1505.8032 1633.5733 1505.8057 1633.8172 1505.7988 1634.0781 C 1505.7823 1634.705 1505.7638 1635.335 1505.7637 1635.9277 C 1505.7637 1635.9321 1505.7637 1635.937 1505.7637 1635.9414 C 1505.7637 1637.5656 1505.7732 1639.0781 1505.7832 1640.5039 C 1505.7834 1640.5258 1505.783 1640.5523 1505.7832 1640.5742 C 1505.8123 1643.3995 1505.8867 1645.8284 1506.0371 1647.9531 C 1506.0602 1648.2822 1506.0842 1648.6 1506.1113 1648.9141 C 1506.1803 1649.7052 1506.2608 1650.4614 1506.3594 1651.1602 C 1506.3632 1651.1872 1506.3653 1651.2153 1506.3691 1651.2422 C 1507.9581 1662.3058 1513.6427 1662.1254 1533.7168 1663.9902 C 1560.5051 1666.4788 1670.0512 1663.9226 1709.5879 1665.4688 C 1718.3156 1665.8101 1725.0364 1666.0849 1730.5059 1665.5879 C 1730.7324 1665.5658 1730.9495 1665.5365 1731.1719 1665.5117 C 1731.6077 1665.466 1732.0408 1665.418 1732.4609 1665.3613 C 1742.5374 1663.9337 1748.2653 1659.2334 1755.0957 1646.2227 C 1755.1625 1646.0948 1755.2299 1645.9674 1755.2969 1645.8379 C 1755.6573 1645.145 1756.023 1644.4176 1756.3906 1643.6777 C 1756.6317 1643.1901 1756.8743 1642.6981 1757.1191 1642.1895 C 1757.3142 1641.7863 1757.5114 1641.3736 1757.709 1640.957 C 1762.4044 1631.0121 1767.8827 1617.2268 1775.6875 1598.1309 C 1775.7509 1597.9757 1775.8119 1597.8193 1775.875 1597.6641 C 1776.7187 1595.5274 1777.5468 1593.3791 1778.3594 1591.2129 C 1778.7508 1590.1687 1779.1276 1589.1075 1779.5117 1588.0547 C 1779.7948 1587.2791 1780.0758 1586.499 1780.3574 1585.7207 C 1780.3674 1585.7027 1780.3719 1585.685 1780.3789 1585.666 C 1780.3889 1585.64 1780.3953 1585.6119 1780.4043 1585.5859 C 1781.7874 1581.6088 1783.0897 1577.56 1784.3145 1573.4102 C 1784.3245 1573.3892 1784.3289 1573.3677 1784.3359 1573.3477 C 1784.3459 1573.3277 1784.3485 1573.3071 1784.3535 1573.2871 C 1793.0113 1543.903 1797.8072 1509.4711 1800.1738 1459.957 L 1800.1738 1459.877 z "
     id="path1864" />
  <path
     style="fill:#3c75b0;fill-opacity:1;stroke:none;stroke-width:1px;stroke-linecap:butt;stroke-linejoin:miter;stroke-opacity:1"
     d="m 122.09035,1103.5289 c 4.65885,-43.649 6.40591,-16.8503 19.21771,10.5966 12.8118,27.4467 34.35891,54.363 125.78856,58.9829 91.42964,4.6198 440.25998,11.3516 525.86608,11.8604 85.6061,0.5087 505.4837,-1.0725 602.7369,-6.3181 97.2532,-5.2456 204.4064,-8.103 227.1182,-23.6915 22.7118,-15.5887 41.9295,-51.5804 46.5884,-67.2763 4.6588,-15.6959 8.1529,-13.928 9.9,20.4413 1.747,34.3693 10.4824,118.8626 11.6471,136.3401 1.1647,17.4775 0.5823,15.7271 -11.6471,12.1603 -12.2295,-3.5669 -128.7004,0.3998 -204.9888,12.1759 -76.2884,11.776 -138.018,56.2505 -156.071,100.4022 -18.053,44.1516 -8.1529,68.087 8.153,80.9957 16.3059,12.9086 0,13.9765 -37.8531,14.9163 -37.853,0.9397 -289.4301,-3.4671 -431.5246,-3.1468 -142.0945,0.3202 -370.9598,1.8719 -384.354,0.6276 -13.3941,-1.2443 -13.3941,-7.0679 -3.4941,-15.7443 9.9,-8.6765 22.1295,-17.3391 19.8001,-51.1296 -2.3295,-33.7903 -51.2472,-98.14 -132.77685,-120.1716 -81.52962,-22.0317 -204.40641,-23.3442 -221.29469,-20.5328 -16.88829,2.8113 -25.04125,12.663 -23.87654,-7.1302 1.16471,-19.7931 9.31767,-122.239 11.06473,-144.3581 z"
     id="path1869" />
  <path
     style="fill:#515151;fill-opacity:1;stroke:none;stroke-width:1px;stroke-linecap:butt;stroke-linejoin:miter;stroke-opacity:1"
     d="m 537.3091,286.6237 c 0.5823,-19.7967 -2.3294,-19.2316 26.2059,-20.8091 28.5354,-1.5774 669.1253,0.4823 690.6724,0.6104 21.5471,0.128 27.3707,2.492 26.7883,27.5298 -0.5823,25.0378 0,123.4592 -0.5823,142.6734 -0.5824,19.2143 -1.7471,23.2838 -24.4589,21.9842 -22.7118,-1.2997 -671.4547,-1.6609 -694.1665,-1.2136 -22.7119,0.4474 -24.4589,-3.6394 -24.4589,-26.3512 0,-22.7118 -0.5824,-119.3862 0,-144.4239 z"
     id="path1871" />
  <path
     style="fill:#6e6e6e;fill-opacity:1;stroke:none;stroke-width:1px;stroke-linecap:butt;stroke-linejoin:miter;stroke-opacity:1"
     d="m 399.8734,264.2598 c 19.8001,0.7 20.9648,2.454 21.5471,19.9281 0.5824,17.474 0,44.8413 -0.5823,58.8143 -0.5824,13.973 -6.4059,18.0149 -17.4706,18.5316 -11.0648,0.5165 -162.47693,0.1991 -175.28873,-0.4594 -12.81179,-0.6584 -17.47063,-3.5979 -18.05298,-20.4897 -0.58236,-16.8918 0,-50.0825 0.58235,-61.1437 0.58236,-11.0613 1.74706,-14.5486 18.63534,-15.0305 16.88828,-0.482 149.66512,-1.44 170.62982,-0.1507 z"
     id="path1873" />
  <path
     style="fill:#e9e9e9;fill-opacity:1;stroke:none;stroke-width:1px;stroke-linecap:butt;stroke-linejoin:miter;stroke-opacity:1"
     d="m 265.64074,357.8035 c 20.3824,-0.1701 41.92952,-16.3479 42.80305,-44.0046 0.87353,-27.6566 -22.12947,-41.1874 -42.2207,-41.598 -20.09123,-0.4106 -39.89128,18.107 -40.76481,42.8519 -0.87353,24.7449 16.01475,44.063 40.18246,42.7507 z"
     id="path1875" />
  <path
     style="fill:#e25138;fill-opacity:1;stroke:none;stroke-width:1px;stroke-linecap:butt;stroke-linejoin:miter;stroke-opacity:1"
     d="m 326.78795,315.655 c 0,-23.003 18.05298,-41.8222 37.85304,-41.9958 19.80001,-0.1735 41.63831,12.477 41.63831,43.9241 0,31.4471 -20.3824,39.7702 -36.10595,39.9679 -15.72357,0.1977 -42.51187,-11.0262 -43.3854,-41.8962 z"
     id="path1877" />
  <path
     style="fill:#6e6e6e;fill-opacity:1;stroke:none;stroke-width:1px;stroke-linecap:butt;stroke-linejoin:miter;stroke-opacity:1"
     d="m 1397.1554,276.3011 c 0.8736,-7.5654 1.1648,-8.7284 9.6089,-9.2606 8.4441,-0.5321 174.7063,-0.4177 185.7711,0.2305 11.0647,0.648 12.2294,2.6933 12.5206,14.3421 0.2912,11.6488 0.2912,50.9577 -0.2912,62.3102 -0.5823,11.3524 -2.9118,16.5798 -11.0647,16.5313 -8.153,-0.048 -178.4917,0.6864 -187.227,0.6345 -8.7353,-0.052 -10.1912,-5.593 -10.1912,-12.2901 0,-6.6971 0.5824,-64.0555 0.8735,-72.4979 z"
     id="path1883" />
  <path
     style="fill:#e25138;fill-opacity:1;stroke:none;stroke-width:1px;stroke-linecap:butt;stroke-linejoin:miter;stroke-opacity:1"
     d="m 1446.6555,354.9219 c 33.7766,-0.6728 42.2207,-25.3727 41.3472,-43.722 -0.8735,-18.3494 -13.103,-38.8045 -39.8913,-39.8372 -26.7883,-1.0328 -42.803,19.2545 -43.0942,41.3822 -0.2912,22.1278 13.9765,42.0126 41.6383,42.177 z"
     id="path1879" />
  <path
     style="fill:#e9e9e9;fill-opacity:1;stroke:none;stroke-width:1px;stroke-linecap:butt;stroke-linejoin:miter;stroke-opacity:1"
     d="m 1551.7295,272.8129 c -31.1679,-0.3395 -43.3444,20.4551 -42.1797,43.465 1.1647,23.01 14.2677,39.1026 43.3855,38.6933 29.1177,-0.4093 38.7265,-18.6964 39.0177,-41.9889 0.2912,-23.2924 -12.5375,-39.8678 -40.2235,-40.1694 z"
     id="path1881" />
  <path
     style="fill:#626262;fill-opacity:1;stroke:none;stroke-width:1px;stroke-linecap:butt;stroke-linejoin:miter;stroke-opacity:1"
     d="m 209.79882,539.22405 c 3.94798,-30.57335 4.93498,-27.60655 41.45379,-28.37655 36.51881,-0.7699 1289.01539,0.7514 1318.62529,0.9273 29.6098,0.176 33.5578,5.1345 34.5448,40.67213 0.987,35.53767 0.987,485.60737 0,521.13337 -0.987,35.5259 -3.948,42.4173 -28.6229,42.2707 -24.6748,-0.1467 -574.431,-1.4397 -740.2462,-0.4511 -165.8151,0.9886 -548.76917,-1.2872 -587.26198,-2.503 -38.4928,-1.2157 -45.40176,-4.2178 -45.40176,-33.8277 0,-29.6098 5.92197,-502.34522 6.90896,-539.84515 z"
     id="path1885" />
  <path
     style="fill:#aa7601;fill-opacity:1;stroke:none;stroke-width:1px;stroke-linecap:butt;stroke-linejoin:miter;stroke-opacity:1"
     d="m 1623.3133,1262.8372 c 45.0117,-2.5458 75.4883,7.0128 64.7043,57.118 -10.7841,50.1052 -31.4144,105.3095 -77.8328,121.913 -46.4183,16.6036 -210.0545,21.2576 -238.1868,20.1526 -28.1323,-1.1049 -55.3269,-19.0837 -55.7958,-45.8122 -0.4688,-26.7284 26.2568,-85.6474 79.2394,-112.0583 52.9825,-26.4108 189.893,-39.1945 227.8717,-41.3131 z"
     id="path1890" />
  <path
     style="fill:#a2a2a2;fill-opacity:1;stroke:none;stroke-width:1px;stroke-linecap:butt;stroke-linejoin:miter;stroke-opacity:1"
     d="m 1421.6984,1305.2442 c 52.0448,-0.6285 76.895,27.1825 78.3016,65.1696 1.4066,37.987 -26.7257,76.7361 -70.7997,77.412 -44.0739,0.6757 -71.2685,-41.2155 -72.6751,-68.8872 -1.4066,-27.6718 16.8794,-70.2305 65.1732,-73.6944 z"
     id="path1892" />
  <path
     style="fill:#d6d6d6;fill-opacity:1;stroke:none;stroke-width:1px;stroke-linecap:butt;stroke-linejoin:miter;stroke-opacity:1"
     d="m 1515.0039,1366.2831 c 0.4689,-41.7268 28.1323,-74.8523 70.7996,-76.9431 42.6673,-2.0908 71.7374,34.185 71.7374,69.8193 0,35.6343 -29.4245,72.9692 -68.8097,73.6728 -39.3853,0.7038 -73.7273,-22.0061 -73.7273,-66.549 z"
     id="path1894" />
  <path
     style="fill:#aa7601;fill-opacity:1;stroke:none;stroke-width:1px;stroke-linecap:butt;stroke-linejoin:miter;stroke-opacity:1"
     d="m 111.27241,1321.2823 c -2.5299,-42.6343 9.75841,-61.542 48.79206,-59.7853 39.03363,1.7567 92.39993,0.854 160.40385,16.2008 68.00388,15.3466 106.42768,32.3472 134.17808,77.3398 27.7505,44.9927 25.006,68.1525 14.6377,81.8137 -10.3684,13.6611 -17.3822,22.768 -66.4792,22.1713 -49.09701,-0.5968 -95.75439,1.2606 -151.25535,-6.9979 -55.50095,-8.2585 -83.55638,-11.7798 -104.59795,-41.4849 -21.04158,-29.7052 -34.2294,-64.8255 -35.67919,-89.2575 z"
     id="path1900" />
  <path
     style="fill:#d6d6d6;fill-opacity:1;stroke:none;stroke-width:1px;stroke-linecap:butt;stroke-linejoin:miter;stroke-opacity:1"
     d="m 214.95552,1433.2052 c 41.16774,-0.1279 76.54252,-29.1253 75.93262,-70.6021 -0.6099,-41.4769 -38.64273,-71.6234 -72.88312,-72.0965 -38.72868,-0.5351 -70.44352,24.8923 -69.22372,72.4718 1.21981,47.5795 39.93361,70.3084 66.17422,70.2268 z"
     id="path1896" />
  <path
     style="fill:#a2a2a2;fill-opacity:1;stroke:none;stroke-width:1px;stroke-linecap:butt;stroke-linejoin:miter;stroke-opacity:1"
     d="m 304.61091,1375.7975 c 0.30338,-45.7965 29.58017,-70.5727 68.61379,-70.9506 39.0336,-0.378 70.7485,29.3907 72.8831,68.437 2.1347,39.0464 -23.1762,73.6603 -65.5643,72.7985 -42.38807,-0.8618 -76.18315,-32.4624 -75.93259,-70.2849 z"
     id="path1898" />
</svg>

<svg xmlns="http://www.w3.org/2000/svg" width="1802.208" height="1665.955"><path d="M266.39 1665.814c46.465.895 1243.698-2.814 1272.863-1.533 27.575 1.212-6.9-140.633-6.9-140.633l-1305.87 4.315s-7.922 136.929 39.907 137.85z" fill="#1f1f1f"/><path d="M1512.672 15.307c156.167 11.424 210.07 45.492 241.41 87.28 29.583 39.447 30.875 57.992 32.522 151.663 1.883 107.072 6.662 438.369 12.144 815.284 5.157 354.593 9.044 450.048-23.06 528.597-28.224 69.056-26.095 68.902-66.1 67.338-39.536-1.546-149.082 1.01-175.87-1.48-26.789-2.488-27.954-1.33-27.954-28.118 0-26.789 18.636-89.572-114.14-91.526-132.778-1.954-956.714.521-1004.481.238-47.767-.284-98.829 9.295-98.829 63.651s.824 57.655-15.648 57.557c-16.471-.098-130.291-1.267-160.973-.82-28.173.411-38.569 2.591-49.862-16.046-32.168-53.09-56.083-116.768-60.944-234.292-3.654-88.332 9.97-648.01 10.887-765.03C12.798 518.977 17.797 315.84 22.37 201.9c3.858-96.145 64.992-158.825 183.587-177.886C324.55 4.952 657.275-1.307 914.23.22c256.955 1.527 456.788-.58 598.442 15.087z" fill="#e4ba09"/><path d="M1659.564 336.55c0-84.005-1.647-131.782-74.122-145.39-72.474-13.608-437.317-17.423-617.68-20.142-180.362-2.719-575.678 8.109-689.33 16.493-113.654 8.384-114.478 54.499-119.419 133.533-4.941 79.033 30.472-66.529 30.472-66.529l184.48-26.905 1220.537 3.136 32.943 40.55z" fill="#764d02"/><path d="M1525.322 209.745c108.723 3.54 130.124 18.892 135.066 139.163 4.941 120.271 8.235 533.725 0 637.446-8.236 103.721-19.517 155.318-80.082 158.452-60.565 3.135-91.979 1.383-110.065 1.676-359.375 5.823-592.425 11.425-862.38 4.097-35.416-.961-282.486-4.15-357.431-4.595-74.946-.445-100.476-36.834-102.123-133.202-1.648-96.368 3.294-359.059 4.941-448.818 1.647-89.76 2.47-213.291 7.412-265.147 4.942-51.856 31.296-87.937 164.715-87.967 133.419-.031 1092.068-4.617 1199.947-1.105z" fill="#2a2a2a"/><path d="M1800.174 1459.877c-292.227 6.3-603.11 15.554-902.414 14.436-188.776-1.122-646.08-5.5-892.8-4.38 9.145 83.474 30.156 134.902 56.872 178.993 11.293 18.637 21.689 16.457 49.861 16.047 30.682-.448 144.502.72 160.973.818.959.006 1.846-.005 2.691-.031.134-.005.27-.007.4-.012a36.29 36.29 0 001.534-.1c.215-.018.432-.035.639-.058a18.954 18.954 0 002.396-.447c.15-.042.291-.092.436-.14a8.485 8.485 0 001.65-.728c.117-.067.236-.133.348-.207a7.02 7.02 0 00.76-.576c.023-.02.05-.037.074-.058 2.126-1.912 3.3-5.333 3.945-11.356a123.18 123.18 0 00.463-6.389c.078-1.686.139-3.514.184-5.492v-.025c.044-1.979.075-4.111.095-6.404v-.03-.074c.027-3.06.033-6.511.035-10.176.003-4.638-.001-9.497-.002-15.209v-.011-.034c0-.836.014-1.662.038-2.478 1.535-52.17 51.759-61.454 98.79-61.174 47.768.284 871.704-2.19 1004.481-.236 103.817 1.527 115.066 40.242 115.035 69.863a130.588 130.588 0 01-.05 3.506c-.158 5.754-.639 11.074-.795 15.592-.01.266-.007.51-.014.771-.017.627-.035 1.257-.035 1.85v.013c0 1.625.01 3.137.02 4.563v.07c.028 2.825.103 5.254.253 7.38.023.328.047.646.074.96.07.791.15 1.547.248 2.246l.01.082c1.59 11.064 7.274 10.883 27.348 12.748 26.788 2.489 136.334-.067 175.87 1.479 8.729.341 15.45.616 20.919.119.226-.022.443-.052.666-.076.436-.046.869-.094 1.289-.15 10.076-1.428 15.804-6.129 22.635-19.14.066-.127.134-.255.2-.384a154.841 154.841 0 002.412-4.88c4.696-9.946 10.175-23.731 17.98-42.827l.187-.467a402.038 402.038 0 002.484-6.451c.392-1.044.769-2.105 1.153-3.158.283-.776.564-1.556.845-2.334.01-.018.015-.036.022-.055.01-.026.016-.054.025-.08a267.868 267.868 0 003.91-12.176c.01-.02.015-.042.022-.062.01-.02.013-.04.017-.06 8.658-29.385 13.454-63.817 15.82-113.331v-.08z" fill="#dca70a"/><path d="M122.09 1103.529c4.66-43.65 6.406-16.85 19.218 10.597 12.812 27.446 34.359 54.363 125.789 58.982 91.43 4.62 440.26 11.352 525.866 11.86 85.606.51 505.483-1.072 602.737-6.317 97.253-5.246 204.406-8.103 227.118-23.692 22.712-15.588 41.93-51.58 46.588-67.276 4.659-15.696 8.153-13.928 9.9 20.441 1.747 34.37 10.483 118.863 11.647 136.34 1.165 17.478.583 15.727-11.647 12.16-12.23-3.566-128.7.4-204.989 12.177-76.288 11.776-138.018 56.25-156.07 100.402-18.054 44.151-8.154 68.087 8.152 80.995 16.306 12.909 0 13.977-37.853 14.917-37.853.94-289.43-3.467-431.524-3.147-142.095.32-370.96 1.872-384.354.628-13.394-1.245-13.394-7.068-3.494-15.745 9.9-8.676 22.13-17.339 19.8-51.13-2.33-33.79-51.247-98.14-132.777-120.171-81.53-22.032-204.407-23.344-221.295-20.533-16.888 2.812-25.041 12.663-23.876-7.13 1.164-19.793 9.317-122.239 11.064-144.358z" fill="#3c75b0"/><path d="M537.31 286.624c.581-19.797-2.33-19.232 26.205-20.81 28.535-1.577 669.125.483 690.672.611 21.548.128 27.371 2.492 26.789 27.53-.583 25.038 0 123.459-.583 142.673-.582 19.215-1.747 23.284-24.459 21.984-22.711-1.3-671.454-1.66-694.166-1.213-22.712.447-24.459-3.64-24.459-26.351 0-22.712-.582-119.387 0-144.424z" fill="#515151"/><path d="M399.873 264.26c19.8.7 20.965 2.454 21.548 19.928.582 17.474 0 44.841-.583 58.814-.582 13.973-6.406 18.015-17.47 18.532-11.065.516-162.477.199-175.29-.46-12.81-.658-17.47-3.597-18.052-20.49-.582-16.891 0-50.082.582-61.143.583-11.061 1.747-14.549 18.636-15.03 16.888-.483 149.665-1.44 170.63-.151z" fill="#6e6e6e"/><path d="M265.64 357.803c20.383-.17 41.93-16.347 42.804-44.004.873-27.657-22.13-41.187-42.22-41.598-20.092-.41-39.892 18.107-40.766 42.852-.873 24.745 16.015 44.063 40.183 42.75z" fill="#e9e9e9"/><path d="M326.788 315.655c0-23.003 18.053-41.822 37.853-41.996 19.8-.173 41.638 12.477 41.638 43.924s-20.382 39.77-36.106 39.968c-15.723.198-42.512-11.026-43.385-41.896z" fill="#e25138"/><path d="M1397.155 276.301c.874-7.565 1.165-8.728 9.61-9.26 8.443-.533 174.706-.418 185.77.23 11.065.648 12.23 2.693 12.521 14.342.291 11.649.291 50.958-.291 62.31-.582 11.353-2.912 16.58-11.065 16.532-8.153-.048-178.492.686-187.227.634-8.735-.052-10.191-5.593-10.191-12.29 0-6.697.582-64.055.873-72.498z" fill="#6e6e6e"/><path d="M1446.656 354.922c33.776-.673 42.22-25.373 41.347-43.722-.874-18.35-13.103-38.805-39.892-39.837-26.788-1.033-42.803 19.254-43.094 41.382-.291 22.128 13.977 42.013 41.638 42.177z" fill="#e25138"/><path d="M1551.73 272.813c-31.168-.34-43.345 20.455-42.18 43.465 1.165 23.01 14.268 39.103 43.385 38.693 29.118-.41 38.727-18.696 39.018-41.989.291-23.292-12.537-39.867-40.223-40.17z" fill="#e9e9e9"/><path d="M209.799 539.224c3.948-30.573 4.935-27.607 41.454-28.377 36.518-.77 1289.015.752 1318.625.928 29.61.176 33.558 5.134 34.545 40.672.987 35.538.987 485.607 0 521.133-.987 35.526-3.948 42.418-28.623 42.271-24.675-.147-574.431-1.44-740.246-.451-165.816.989-548.77-1.287-587.262-2.503-38.493-1.216-45.402-4.218-45.402-33.828 0-29.61 5.922-502.345 6.909-539.845z" fill="#626262"/><path d="M1623.313 1262.837c45.012-2.546 75.489 7.013 64.705 57.118-10.784 50.105-31.415 105.31-77.833 121.913-46.418 16.604-210.055 21.258-238.187 20.153-28.132-1.105-55.327-19.084-55.796-45.812-.469-26.729 26.257-85.648 79.24-112.059 52.982-26.41 189.893-39.194 227.871-41.313z" fill="#aa7601"/><path d="M1421.698 1305.244c52.045-.628 76.895 27.183 78.302 65.17 1.407 37.987-26.726 76.736-70.8 77.412-44.074.676-71.268-41.216-72.675-68.887-1.406-27.672 16.88-70.23 65.173-73.695z" fill="#a2a2a2"/><path d="M1515.004 1366.283c.469-41.727 28.132-74.852 70.8-76.943 42.667-2.09 71.737 34.185 71.737 69.82 0 35.634-29.425 72.969-68.81 73.672-39.385.704-73.727-22.006-73.727-66.549z" fill="#d6d6d6"/><path d="M111.272 1321.282c-2.53-42.634 9.759-61.542 48.792-59.785 39.034 1.757 92.4.854 160.404 16.2 68.004 15.347 106.428 32.348 134.178 77.34 27.75 44.993 25.006 68.153 14.638 81.814-10.368 13.661-17.382 22.768-66.48 22.172-49.096-.597-95.753 1.26-151.254-6.998-55.501-8.259-83.557-11.78-104.598-41.485-21.042-29.705-34.23-64.826-35.68-89.258z" fill="#aa7601"/><path d="M214.956 1433.205c41.167-.128 76.542-29.125 75.932-70.602-.61-41.477-38.643-71.623-72.883-72.096-38.729-.536-70.444 24.892-69.224 72.471 1.22 47.58 39.934 70.309 66.175 70.227z" fill="#d6d6d6"/><path d="M304.61 1375.797c.304-45.796 29.581-70.572 68.615-70.95 39.033-.378 70.748 29.39 72.883 68.437 2.134 39.046-23.176 73.66-65.565 72.798-42.388-.861-76.183-32.462-75.932-70.285z" fill="#a2a2a2"/></svg>
